dist/img/sprites/hPrice.svg

<svg width="26" height="32" viewBox="0 0 26 32" fill="none" xmlns="http://www.w3.org/2000/svg">
<path d="M17.1734 1.84159L17.1061 1.85676V1.79967H3.84312C3.62664 1.75939 3.3868 1.81941 3.15557 1.93498C2.92053 2.05245 2.68658 2.23111 2.48156 2.43777C2.27646 2.64451 2.09795 2.88163 1.97528 3.11806C1.85406 3.35168 1.78367 3.59182 1.80398 3.80408V28.2209C1.80398 28.4118 1.87872 28.6316 1.99516 28.8497C2.11234 29.0691 2.27528 29.2934 2.45995 29.4948C2.64457 29.6962 2.8527 29.8767 3.06132 30.0074C3.26858 30.1373 3.48331 30.2224 3.67945 30.2224L22.235 30.2221C22.4706 30.2221 22.715 30.1225 22.944 29.9727C23.1738 29.8223 23.3943 29.6173 23.5837 29.3966C23.7731 29.1758 23.9333 28.9371 24.0417 28.7176C24.147 28.5045 24.2097 28.2967 24.1891 28.1389V9.03757V8.96257H24.1141H20.8813C20.7203 8.8835 20.4884 8.81001 20.3214 8.80926C19.7193 8.7697 18.9325 8.35831 18.2926 7.78666C17.9736 7.50169 17.6946 7.17991 17.4958 6.85034C17.2967 6.52024 17.1807 6.18663 17.1807 5.87653V1.94967H17.2247L17.1739 1.84251L17.1734 1.84159ZM24.1164 7.26522L24.1155 7.19026H24.1888V6.95929V6.92656L24.1648 6.9043L19.0352 2.14613L18.9092 2.02925V2.20112L18.9092 5.49522L18.9092 5.49708C18.9145 5.71063 19.0058 5.9314 19.1457 6.13835C19.2861 6.34604 19.479 6.5449 19.6961 6.71591C20.126 7.05461 20.6676 7.29673 21.1044 7.26524H24.0388V7.26716L24.1146 7.26524L24.1157 7.26524L24.1164 7.26522ZM3.52297 0.099721L3.52309 0.0997208L19.3803 0.075048L25.925 6.55534L25.9192 28.3767C25.9192 28.7071 25.8021 29.0947 25.5971 29.4932C25.3926 29.8909 25.1032 30.2946 24.7648 30.6562C24.0846 31.383 23.2223 31.9232 22.4707 31.9232H3.44482V31.923L3.44028 31.9233C3.14921 31.941 2.79305 31.8194 2.41652 31.596C2.04184 31.3738 1.65556 31.0557 1.30683 30.6935C0.958158 30.3313 0.649016 29.927 0.427495 29.5337C0.205108 29.1389 0.075 28.7622 0.075 28.4534V3.57079C0.113508 2.86467 0.589517 1.99583 1.25802 1.29989C1.92751 0.602919 2.77037 0.0997209 3.52297 0.099721ZM6.02455 23.0984C6.02455 22.6288 6.41004 22.2485 6.88951 22.2485H19.1033C19.5835 22.2485 19.9683 22.6288 19.9683 23.0984C19.9683 23.568 19.5828 23.9483 19.1033 23.9483H6.88951C6.4093 23.9483 6.02455 23.568 6.02455 23.0984ZM6.02455 16.0104C6.02455 15.5409 6.41004 15.1605 6.88951 15.1605H19.1033C19.5835 15.1605 19.9683 15.5408 19.9683 16.0104C19.9683 16.48 19.5828 16.8604 19.1033 16.8604H6.88951C6.4093 16.8604 6.02455 16.48 6.02455 16.0104ZM6.02455 8.92171C6.02455 8.45295 6.41 8.07255 6.88951 8.07255H13.1534C13.6337 8.07255 14.0184 8.45218 14.0184 8.92171C14.0184 9.39128 13.6329 9.77163 13.1534 9.77163H6.88951C6.40934 9.77163 6.02455 9.39059 6.02455 8.92171Z" fill="#4B8125" stroke="white" stroke-width="0.15"/>
</svg>

<svg width="26" height="32" viewBox="0 0 26 32" fill="none" xmlns="http://www.w3.org/2000/svg"><path d="M17.173 1.842l-.067.015V1.8H3.843c-.216-.04-.456.02-.687.135a2.65 2.65 0 00-.674.503 2.873 2.873 0 00-.507.68c-.12.234-.191.474-.171.686v24.417c0 .19.075.41.191.629.117.22.28.443.465.645.185.201.393.382.601.512.208.13.422.215.618.215h18.556c.236 0 .48-.1.709-.25.23-.15.45-.355.64-.575.19-.221.35-.46.458-.68.105-.212.168-.42.147-.578V8.963h-3.308a1.47 1.47 0 00-.56-.154c-.602-.04-1.389-.45-2.028-1.022a4.203 4.203 0 01-.797-.937c-.2-.33-.315-.663-.315-.973V1.95h.044l-.051-.107v-.001zm6.943 5.423V7.19h.073v-.263l-.024-.023-5.13-4.758-.126-.117v3.468c.006.214.097.434.237.641.14.208.333.407.55.578.43.339.972.58 1.408.55h2.935v.001l.076-.002h.001zM3.523.1h0L19.38.075l6.545 6.48-.006 21.822c0 .33-.117.718-.322 1.116a5.27 5.27 0 01-.832 1.163c-.68.727-1.543 1.267-2.294 1.267H3.445v0H3.44c-.29.018-.647-.104-1.023-.327a5.473 5.473 0 01-1.11-.902 5.897 5.897 0 01-.88-1.16c-.222-.395-.352-.772-.352-1.08V3.57C.114 2.865.59 1.996 1.258 1.3 1.928.603 2.77.1 3.523.1zm2.502 22.998c0-.47.385-.85.865-.85h12.213c.48 0 .865.38.865.85s-.385.85-.865.85H6.89a.856.856 0 01-.865-.85zm0-7.088c0-.47.385-.85.865-.85h12.213c.48 0 .865.38.865.85s-.385.85-.865.85H6.89a.856.856 0 01-.865-.85zm0-7.088c0-.47.385-.85.865-.85h6.263c.48 0 .865.38.865.85s-.385.85-.865.85H6.89a.856.856 0 01-.865-.85z" fill="#4B8125" stroke="#fff" stroke-width=".15"/></svg>
